X:1
T:Who Will Go?
T:Who Will Go?
T:Jesse Albert Barney
T:Jesse Albert Barney, 1913
T:Public Domain Courtesy of the Cyber Hymnal™
T:Public Domain Courtesy of the Cyber Hymnal™
T:Public Domain Courtesy of the Cyber Hymnal™
C:Jesse Albert Barney
Z:Public Domain
Z:Courtesy of the Cyber Hymnal™
%%score ( 1 2 ) 3
L:1/8
Q:1/4=100
M:4/4
K:Ab
V:1 treble 
V:2 treble 
V:3 bass 
V:1
 [CE][CF][CEG][CEA] [CEB][CEA][CE][CEA] | c2 c6 | [CE][CF][CEG][CEA] [CEB][CEA][CE][CEA] | [DEG]8 | %4
w: 1.~Hark! I hear a sound from o’er the|wa- ter,|’Tis the cry of an- guish and des-|pair;|
w: 2.~Will you go and tell them of a|Sav- ior?|Tell them how He suf- fered on the|tree?|
w: 3.~We will fol- low, we will fol- low|Je- sus,|Wil- ling- ly and glad- ly we’ll o-|bey,|
w: 4.~Af- ter we’ve re- ceived the Spir- it’s|full- ness,|Fill- ing all our hearts with love di-|vine,|
 [DE][DF][DEG][DEA] [DEB][DEB][EGB][EGc] | d2 d4 E2 [DG]2 | %6
w: ’Tis the cry of pre- cious souls in|dark- ness, While wait-|
w: Will you give your ve- ry life to|save them? And tell|
w: He will ne- ver leave us nor for-|sake us, He is|
w: We’re to wit- ness to the bless- èd|Gos- pel, In ev-|
 [DF][CE][=B,=D][CE] [_DF][DG][CA][D=B] | c8 | [CE][CF][DEG][DEA] [DEB][DEA][CE][CEA] | %9
w: * ing for the light of Je- sus,|there;|Hear the i- dle la- borers near us|
w: * them Je- sus came to set them|free?|Will you take the way, en- dure the|
w: * our friend, our com- fort- er and|stay.|Though He lead us o’er the brin- y|
w: * ery na- tion, count- ry, land and|clime,|When we give the Gos- pel as a|
 [CEc]2 [CEc]6 | [EAc][EAc][EGB][EAc] [EAe][EAc][FAd][EAc] | [DF]4- [DF]3 [DG] | %12
w: say- ing,|“Mas- ter, what wilt Thou have me to|do?” * The|
w: suf- fering?|Find- ing in the cross your on- ly|rest? * For|
w: o- cean,|Though He lead us o’er the sand- y|plain, * We|
w: wit- ness|Un- to ev- ery peo- ple far and|near, * With|
 [DFA][DFA][DG][DFA] [DFB][DFA][DG][DFA] | [CEAc]2 [CE]4 [Ec]2 | [EAc]4 ([D-GB]3 [DEG]) | [DE]6 || %16
w: har- vest now is great, oh! haste, my|bro- ther, The|reap- ers *|few.|
w: suf- fering here with Je- sus brings the|glo- ry, His|ways are *|best.|
w: still will trust in Je- sus Christ our|Sav- ior, Oh!|praise His *|name.|
w: light- ning flash, we’ll see in clouds of|glo- ry The|King ap- *|pear.|
"^Refrain" CD | ([CE]4 [CE]2) [CA][DB] | ([Ec]4 [Ec]2) [DB][CA] | ([Fd]4 [Fd]2) [DFA][DFB] | %20
w: ||||
w: Who will|go? * Who will|go? * To the|ends * of the|
w: ||||
w: ||||
 [EAc]6 [CE]2 | [DE]3 [DF] [DG][DE][DF][DG] | ([CA]4 [CA]2) [Ec][Ec] | %23
w: |||
w: earth, Hast|thou a pas- sion for the|lost? * Dost thou|
w: |||
w: |||
 [=DB]2 [DB]2 [Dc][DB][DA][DF] | [DE]6 C[B,D] | ([CE]4 [CE]2) [CA][DB] | ([Ec]4 [Ec]2) [DB][CA] | %27
w: ||||
w: real- ize what a soul is|worth? Who will|go? * Who will|go? * Tell of|
w: ||||
w: ||||
 [Fd]2 [Fd]2 [Fd][Fd][FA][FB] | [=Ec]6 [Ec]2 | [DB]3 [DA] [DG]2 [DF]2 | [CE]2 [CEA]4 [CEA][CEB] | %31
w: ||||
w: Je- sus’ death up- on the|tree? Oh!|who will an- swer|quick- ly, “Here am|
w: ||||
w: ||||
 [EAc]3 [FAd] [EAc]2 [GB]2 | [CEA]8 |] %33
w: ||
w: I, O Lord, send|me”?|
w: ||
w: ||
V:2
 x8 | (EA) (GF E4) | x8 | x8 | x8 | (BA) GF x6 | x8 | (EA GF E4) | x8 | x8 | x8 | x8 | x8 | x8 | %14
 x8 | x6 || CD | x8 | x8 | x8 | x8 | x8 | x8 | x8 | x8 | x8 | x8 | x8 | x8 | x8 | x8 | x6 (ED) | %32
 x8 |] %33
V:3
 [A,,A,]2 [E,,E,]2 [A,,A,]2 [E,,E,]2 | [A,,A,]2 ([E,,E,]2 [A,,A,]2 [E,,E,]2) | %2
 [C,E,A,]2 [E,,E,]2 [C,E,A,]2 [E,,E,]2 | ([E,,E,][F,,F,] [G,,G,][F,,F,] [E,,E,]2 [E,G,B,]2) | %4
 [E,,E,]2 [E,G,B,]2 [E,,E,]2 [E,G,B,]2 | [E,,E,]2 [E,G,B,]2 [E,,E,]2 [E,G,B,]2 x2 | %6
 [A,,,A,,]2 [C,E,A,]2 [A,,,A,,]2 [C,E,A,]2 | ([A,,A,]2 [E,,E,]2 [A,,A,]2 [E,,E,]2) | %8
 [A,,A,]2 [E,,E,]2 [A,,A,]2 [E,,E,]2 | ([A,,A,][A,,A,]) ([G,,G,][F,,F,] [E,,E,]2 [A,,A,]2) | %10
 [A,,E,A,]2 [E,,E,]2 [A,,E,A,]2 [E,,E,]2 | ([D,,D,]2 [D,F,A,]2 [D,F,A,]2 [D,F,A,]2) | %12
 [D,,D,]2 [D,F,A,]2 [D,,D,]2 [D,F,A,]2 | [A,,,A,,]2 ([A,,E,A,]2 [A,,E,A,]2) [A,,E,A,]2 | %14
 ([E,,,E,,]2 [E,,E,]2) ([E,,,E,,]2 [E,G,B,]2) | ([E,,E,][F,,F,][G,,G,][F,,F,][E,,E,][D,,D,]) || %16
 [C,,C,][B,,,B,,] | ([A,,,A,,][A,,A,][G,,G,][F,,F,] [E,,E,]2) [A,,A,] z | %18
 ([E,,E,][A,,A,][G,,G,][F,,F,] [E,,E,]2) [A,,A,]2 | %19
 ([D,,D,][E,,E,][F,,F,][G,,G,] [A,,A,]) z [D,A,]2 | %20
 ([E,,E,][A,,A,][G,,G,][F,,F,] [E,,E,]2) [A,,A,]2 | [E,,E,]2 [E,G,B,]2 [E,,E,]2 [E,G,B,]2 | %22
 ([E,,E,][A,,A,][G,,G,][F,,F,] [E,,E,]2) [A,,A,]2 | [B,,,B,,]2 [B,,F,A,]2 [B,,,B,,]2 [B,,F,A,]2 | %24
 ([G,,G,][A,,A,][G,,G,][F,,F,][D,,E,][C,,D,])[C,,C,][B,,,B,,] | %25
 ([A,,,A,,][A,,A,][G,,G,][F,,F,] [E,,E,]2) [A,,A,] z | %26
 ([E,,E,][A,,A,][G,,G,][F,,F,] [E,,E,]2) [A,,A,]2 | [A,,F,]2 [A,,F,]2 [A,,F,][A,,F,] [F,A,D]2 | %28
 ([C,,C,]2 [=E,,=E,][G,,G,] [C,C]2) z2 | ([D,,D,]2 [D,F,A,]2) [D,,D,]2 [D,F,A,]2 | %30
 [A,,,A,,]2 [C,E,A,]2 [A,,,A,,]2 [C,E,A,]2 | [A,,A,]2 [E,A,C]2 [A,,E,A,]2 [E,,E,]2 | [A,,,A,,]8 |] %33

